X: 35906
T: Sandy O'er The Lea
R: reel
M: 4/4
K: Dmajor
|:F|DEFG AFFB|AFFD E2EF|DEFG AFFB|AGFE D2D:|
|:g|faef defa|AFFD E2Eg|faef defa|AGFE D2D:|
|:A|FADA FADB|AFFD E2EA|FADA FADB|AGFE D2D:|
|:g|faef defa|AFFD E2Eg|faef defa|AGFE D2D:|

